Support/Assets.xcassets/welcomeLogo.imageset/vertical-logo-dark-g.svg

<?xml version="1.0" encoding="UTF-8" standalone="no"?><!DOCTYPE svg PUBLIC "-//W3C//DTD SVG 1.1//EN" "http://www.w3.org/Graphics/SVG/1.1/DTD/svg11.dtd"><svg width="100%" height="100%" viewBox="0 0 192 140" version="1.1" xmlns="http://www.w3.org/2000/svg" xmlns:xlink="http://www.w3.org/1999/xlink" xml:space="preserve" xmlns:serif="http://www.serif.com/" style="fill-rule:evenodd;clip-rule:evenodd;stroke-linejoin:round;stroke-miterlimit:2;"><g><path d="M129.274,60.898c-2.976,-9.463 -13.061,-14.714 -22.523,-11.738c-9.462,2.976 -14.724,13.06 -11.738,22.523c0.01,0.039 0.029,0.087 0.039,0.126l-8.519,0c-1.624,0 -3.064,-1.06 -3.53,-2.616l-7.061,-23.165l1.206,-0.642c16.727,-7.021 34.621,5.514 47.079,-6.525c0.029,-0.029 0.058,-0.058 0.078,-0.078c1.546,-1.4 3.082,-2.83 7.643,0.02c4.902,3.073 15.726,11.096 20.637,24.808c0,0 2.976,-1.06 2.149,-4.697c-0.827,-3.647 -6.856,-14.15 -19.187,-23.466c-2.257,-1.712 -4.289,-3.132 -5.981,-4.27c2.46,-10.542 -10.338,-23.262 -22.835,-17.271c-8.966,-8.432 -18.963,-11.874 -28.163,-11.738c-24.361,0.34 -43.15,25.722 -22.941,49.937c0.01,0.01 0.019,0.02 0.039,0.039c0.311,0.37 0.632,0.739 0.953,1.109c1.313,1.575 2.178,2.966 2.927,5.417l6.02,19.761l-2.13,0c-1.964,0 -3.559,1.595 -3.559,3.559l8.091,0l13.595,6.428c0.837,-1.779 0.078,-3.899 -1.692,-4.736l-3.569,-1.682l10.25,0c0,-1.965 -1.595,-3.559 -3.559,-3.559l-9.287,0c-1.625,0 -3.064,-1.06 -3.531,-2.616l-4.775,-15.687c-1.186,-4.123 1.547,-6.817 4.114,-7.138c2.344,-0.292 3.52,1.225 4.629,4.882l4.24,13.916l-2.13,0c-1.964,0 -3.559,1.595 -3.559,3.56l8.091,0l13.596,6.428c0.836,-1.78 0.078,-3.9 -1.692,-4.736l-3.569,-1.683l7.527,0c4.133,7.071 12.749,10.62 20.889,8.053c9.462,-2.976 14.714,-13.061 11.738,-22.523Zm-13.673,-40.388c2.985,0 5.397,2.412 5.397,5.397c0,0.953 -0.253,1.848 -0.681,2.626c-0.039,-1.867 -1.565,-3.375 -3.452,-3.375c-1.906,0 -3.452,1.547 -3.452,3.453c0,1.04 0.457,1.964 1.176,2.596c-2.499,-0.476 -4.386,-2.664 -4.386,-5.3c0,-2.976 2.412,-5.397 5.398,-5.397Z" style="fill:url(#_Linear1);fill-rule:nonzero;"/><path d="M42.586,94.196l-12.02,0l-15.638,17.68l0,-17.68l-10.386,0l0,40.845l10.386,0l0,-10.036l5.426,-6.01l10.795,16.046l12.429,0l-16.163,-23.924l15.171,-16.921Z" style="fill:#fff;fill-rule:nonzero;"/><rect x="48.129" y="94.196" width="10.386" height="40.845" style="fill:#fff;"/><path d="M107.587,124.246l-7.994,-30.05l-10.152,-0l-7.819,30.05l-7.994,-30.05l-11.087,-0l13.362,40.845l10.737,0l7.702,-28.241l7.585,28.241l10.678,0l13.479,-40.845l-10.619,0l-7.878,30.05Z" style="fill:#fff;fill-rule:nonzero;"/><rect x="129.76" y="94.196" width="10.386" height="40.845" style="fill:#fff;"/><path d="M172.005,113.685l13.479,-19.489l-12.195,0l-7.877,11.903l-7.877,-11.903l-12.079,0l13.654,19.956l-14.587,20.889l12.078,0l8.811,-13.012l8.811,13.012l12.428,0l-14.646,-21.356Z" style="fill:#fff;fill-rule:nonzero;"/></g><defs><linearGradient id="_Linear1" x1="0" y1="0" x2="1" y2="0" gradientUnits="userSpaceOnUse" gradientTransform="matrix(5.28153e-15,-86.2539,86.2539,5.28153e-15,81,88.419)"><stop offset="0" style="stop-color:#fff;stop-opacity:1"/><stop offset="1" style="stop-color:#fff;stop-opacity:0.7"/></linearGradient></defs></svg>

<?xml version="1.0" encoding="UTF-8" standalone="no"?>
<!DOCTYPE svg PUBLIC "-//W3C//DTD SVG 1.1//EN" "http://www.w3.org/Graphics/SVG/1.1/DTD/svg11.dtd">
<svg width="100%" height="100%" viewBox="0 0 192 140" version="1.1" xmlns="http://www.w3.org/2000/svg" xmlns:xlink="http://www.w3.org/1999/xlink" xml:space="preserve" xmlns:serif="http://www.serif.com/" style="fill-rule:evenodd;clip-rule:evenodd;stroke-linejoin:round;stroke-miterlimit:2;">
    <g>
        <path d="M42.586,94.196L30.566,94.196L14.928,111.876L14.928,94.196L4.542,94.196L4.542,135.041L14.928,135.041L14.928,125.005L20.354,118.995L31.149,135.041L43.578,135.041L27.415,111.117L42.586,94.196Z" style="fill:white;fill-rule:nonzero;"/>
        <rect x="48.129" y="94.196" width="10.386" height="40.845" style="fill:white;"/>
        <path d="M107.587,124.246L99.593,94.196L89.441,94.196L81.622,124.246L73.628,94.196L62.541,94.196L75.903,135.041L86.64,135.041L94.342,106.8L101.927,135.041L112.605,135.041L126.084,94.196L115.465,94.196L107.587,124.246Z" style="fill:white;fill-rule:nonzero;"/>
        <rect x="129.76" y="94.196" width="10.386" height="40.845" style="fill:white;"/>
        <path d="M172.005,113.685L185.484,94.196L173.289,94.196L165.412,106.099L157.535,94.196L145.456,94.196L159.11,114.152L144.523,135.041L156.601,135.041L165.412,122.029L174.223,135.041L186.651,135.041L172.005,113.685Z" style="fill:white;fill-rule:nonzero;"/>
    </g>
</svg>
